;FLAVOR:Marlin
;TIME:718
;Filament used: 0.674478m
;Layer height: 0.2
;Generated with Cura_SteamEngine 3.2.1
M104 S215
M109 S215
M82 ;absolute extrusion mode
G28 ;Home
G1 Z15.0 F6000 ;Move the platform down 15mm
;Prime the extruder
G92 E0
G1 F200 E3
G92 E0
;LAYER_COUNT:50
;LAYER:0
M106 S255
G0 F3000 X73.397 Y94.972 Z0.3
;TYPE:SKIRT
G1 F1800 X74.045 Y94.521 E0.03939
G1 X74.736 Y94.137 E0.07883
G1 X75.461 Y93.825 E0.11821
G1 X76.214 Y93.588 E0.15759
G1 X76.988 Y93.429 E0.19701
G1 X77.773 Y93.348 E0.23638
G1 X78.175 Y93.338 E0.25644
G1 X88.993 Y93.338 E0.79616
G1 X88.993 Y86.659 E1.12937
G1 X89.033 Y85.87 E1.16879
G1 X89.152 Y85.09 E1.20815
G1 X89.35 Y84.325 E1.24758
G1 X89.624 Y83.585 E1.28694
G1 X89.972 Y82.876 E1.32635
G1 X90.39 Y82.205 E1.36579
G1 X90.873 Y81.581 E1.40516
G1 X91.416 Y81.008 E1.44454
G1 X92.015 Y80.493 E1.48395
G1 X92.663 Y80.042 E1.52334
G1 X93.354 Y79.658 E1.56278
G1 X94.079 Y79.346 E1.60216
G1 X94.832 Y79.109 E1.64154
G1 X95.606 Y78.95 E1.68096
G1 X96.391 Y78.869 E1.72033
G1 X96.793 Y78.859 E1.7404
G1 X97.078 Y78.859 E1.75461
G1 X97.867 Y78.899 E1.79403
G1 X97.946 Y78.911 E1.79801
G1 X113.855 Y78.911 E2.59172
G1 X114.644 Y78.951 E2.63113
G1 X115.424 Y79.07 E2.6705
G1 X116.189 Y79.268 E2.70992
G1 X116.929 Y79.542 E2.74929
G1 X117.638 Y79.89 E2.78869
G1 X118.309 Y80.308 E2.82813
G1 X118.933 Y80.791 E2.8675
G1 X119.506 Y81.334 E2.90688
G1 X120.021 Y81.933 E2.9463
G1 X120.472 Y82.581 E2.98568
G1 X120.856 Y83.272 E3.02512
G1 X121.168 Y83.997 E3.0645
G1 X121.405 Y84.75 E3.10388
G1 X121.564 Y85.524 E3.14331
G1 X121.645 Y86.309 E3.18268
G1 X121.654 Y86.846 E3.20947
G1 X121.392 Y102.001 E3.96567
G1 X125.618 Y102.001 E4.17651
G1 X125.629 Y101.998 E4.17708
G1 X126.409 Y101.875 E4.21647
G1 X127.26 Y101.841 E4.25896
G1 X127.384 Y101.58 E4.27338
G1 X127.792 Y100.904 E4.31277
G1 X128.266 Y100.273 E4.35214
G1 X128.802 Y99.693 E4.39154
G1 X129.394 Y99.17 E4.43095
G1 X130.036 Y98.709 E4.47039
G1 X130.72 Y98.316 E4.50974
G1 X131.442 Y97.994 E4.54918
G1 X132.192 Y97.747 E4.58858
G1 X132.963 Y97.577 E4.62797
G1 X133.747 Y97.486 E4.66734
G1 X134.476 Y97.472 E4.70372
G1 X135.861 Y97.511 E4.77285
G1 X136.648 Y97.573 E4.81223
G1 X137.425 Y97.715 E4.85164
G1 X138.183 Y97.934 E4.891
G1 X138.916 Y98.229 E4.93042
G1 X139.615 Y98.596 E4.96981
G1 X140.273 Y99.032 E5.00919
G1 X140.884 Y99.533 E5.04861
G1 X141.441 Y100.093 E5.08802
G1 X141.939 Y100.706 E5.12742
G1 X142.372 Y101.366 E5.1668
G1 X142.736 Y102.067 E5.20621
G1 X143.027 Y102.801 E5.2456
G1 X143.243 Y103.561 E5.28502
G1 X143.38 Y104.338 E5.32438
G1 X143.441 Y105.32 E5.37347
G1 X143.433 Y110.661 E5.63993
G1 X143.392 Y111.449 E5.6793
G1 X143.227 Y112.429 E5.72888
G1 X143.209 Y112.506 E5.73282
G1 X143.478 Y113.025 E5.76199
G1 X143.769 Y113.759 E5.80138
G1 X143.983 Y114.519 E5.84077
G1 X144.12 Y115.297 E5.88018
G1 X144.178 Y116.084 E5.91955
G1 X144.156 Y116.874 E5.95898
G1 X144.054 Y117.657 E5.99837
G1 X143.873 Y118.426 E6.03779
G1 X143.751 Y118.809 E6.05784
G1 X143.687 Y118.994 E6.06761
G1 X143.392 Y119.726 E6.10698
G1 X143.339 Y119.826 E6.11263
G1 X143.129 Y120.311 E6.139
G1 X142.743 Y121 E6.1784
G1 X142.244 Y121.703 E6.22141
G1 X141.796 Y122.266 E6.2573
G1 X141.274 Y122.858 E6.29668
G1 X140.695 Y123.394 E6.33604
G1 X140.064 Y123.869 E6.37545
G1 X139.388 Y124.278 E6.41487
G1 X139.098 Y124.409 E6.43074
G1 X138.944 Y124.51 E6.43993
G1 X138.243 Y124.875 E6.47936
G1 X137.51 Y125.168 E6.51874
G1 X136.75 Y125.384 E6.55816
G1 X135.973 Y125.523 E6.59754
G1 X135.186 Y125.583 E6.63692
G1 X134.396 Y125.562 E6.67635
G1 X133.613 Y125.462 E6.71573
G1 X132.844 Y125.283 E6.75512
G1 X132.443 Y125.156 E6.7761
G1 X132.258 Y125.092 E6.78587
G1 X131.526 Y124.797 E6.82524
G1 X131.455 Y124.76 E6.82924
G1 X131.132 Y124.628 E6.84665
G1 X130.257 Y124.148 E6.89644
G1 X129.841 Y123.884 E6.92102
G1 X129.196 Y123.427 E6.96046
G1 X128.601 Y122.908 E6.99985
G1 X128.062 Y122.332 E7.0392
G1 X127.496 Y121.574 E7.0864
G1 X127.146 Y121.04 E7.11825
G1 X126.747 Y120.358 E7.15767
G1 X126.735 Y120.332 E7.1591
G1 X126.696 Y120.271 E7.16271
G1 X126.339 Y119.567 E7.20209
G1 X126.128 Y119.019 E7.23139
G1 X121.87 Y119.019 E7.44382
G1 X121.858 Y119.043 E7.44516
G1 X121.44 Y119.714 E7.4846
G1 X120.957 Y120.338 E7.52397
G1 X120.414 Y120.911 E7.56335
G1 X119.815 Y121.426 E7.60277
G1 X119.167 Y121.877 E7.64215
G1 X118.476 Y122.261 E7.68159
G1 X117.751 Y122.573 E7.72097
G1 X116.998 Y122.81 E7.76035
G1 X116.224 Y122.969 E7.79978
G1 X115.439 Y123.05 E7.83915
G1 X115.038 Y123.06 E7.85916
G1 X100.037 Y123.061 E8.60756
G1 X99.248 Y123.021 E8.64698
G1 X98.916 Y122.97 E8.66373
G1 X98.615 Y123.138 E8.68093
G1 X97.89 Y123.45 E8.72031
G1 X97.137 Y123.687 E8.75969
G1 X96.363 Y123.846 E8.79912
G1 X95.578 Y123.927 E8.83849
G1 X95.176 Y123.937 E8.85855
G1 X78.175 Y123.937 E9.70673
G1 X77.386 Y123.897 E9.74615
G1 X76.606 Y123.778 E9.78551
G1 X75.841 Y123.58 E9.82493
G1 X75.101 Y123.306 E9.8643
G1 X74.392 Y122.958 E9.90371
G1 X73.721 Y122.54 E9.94315
G1 X73.097 Y122.057 E9.98251
G1 X72.524 Y121.514 E10.0219
G1 X72.009 Y120.915 E10.06131
G1 X71.558 Y120.267 E10.1007
G1 X71.174 Y119.576 E10.14014
G1 X70.862 Y118.851 E10.17952
G1 X70.625 Y118.098 E10.2189
G1 X70.466 Y117.324 E10.25832
G1 X70.385 Y116.539 E10.29769
G1 X70.375 Y116.137 E10.31775
G1 X70.375 Y101.138 E11.06606
G1 X70.415 Y100.349 E11.10547
G1 X70.534 Y99.569 E11.14484
G1 X70.732 Y98.804 E11.18426
G1 X71.006 Y98.064 E11.22363
G1 X71.354 Y97.355 E11.26303
G1 X71.772 Y96.684 E11.30247
G1 X72.255 Y96.06 E11.34184
G1 X72.798 Y95.487 E11.38122
G1 X73.397 Y94.972 E11.42064
G0 F3000 X73.786 Y95.18
G1 F1800 X74.428 Y94.757 E11.45899
G1 X75.111 Y94.402 E11.49739
G1 X75.826 Y94.121 E11.53572
G1 X76.568 Y93.915 E11.57414
G1 X77.326 Y93.787 E11.61249
G1 X78.175 Y93.738 E11.65492
G1 X89.393 Y93.738 E12.21459
G1 X89.393 Y86.659 E12.56776
G1 X89.433 Y85.891 E12.60613
G1 X89.552 Y85.131 E12.64451
G1 X89.75 Y84.388 E12.68287
G1 X90.024 Y83.669 E12.72126
G1 X90.371 Y82.983 E12.75961
G1 X90.787 Y82.336 E12.79799
G1 X91.268 Y81.736 E12.83635
G1 X91.809 Y81.189 E12.87473
G1 X92.404 Y80.701 E12.91313
G1 X93.046 Y80.278 E12.95148
G1 X93.729 Y79.923 E12.98989
G1 X94.444 Y79.642 E13.02821
G1 X95.186 Y79.436 E13.06663
G1 X95.944 Y79.308 E13.10498
G1 X96.793 Y79.259 E13.14741
G1 X97.078 Y79.259 E13.16163
G1 X97.846 Y79.299 E13.2
G1 X97.923 Y79.311 E13.20389
G1 X113.855 Y79.311 E13.99874
G1 X114.623 Y79.351 E14.0371
G1 X115.383 Y79.47 E14.07548
G1 X116.126 Y79.668 E14.11385
G1 X116.845 Y79.942 E14.15223
G1 X117.531 Y80.289 E14.19059
G1 X118.178 Y80.705 E14.22896
G1 X118.778 Y81.186 E14.26733
G1 X119.325 Y81.727 E14.30571
G1 X119.813 Y82.322 E14.3441
G1 X120.236 Y82.964 E14.38246
G1 X120.591 Y83.647 E14.42086
G1 X120.872 Y84.362 E14.45919
G1 X121.078 Y85.104 E14.49761
G1 X121.206 Y85.862 E14.53596
G1 X121.254 Y86.839 E14.58476
G1 X120.987 Y102.287 E15.35558
G1 X120.979 Y102.401 E15.36128
G1 X125.699 Y102.401 E15.59676
G1 X125.967 Y102.34 E15.61048
G1 X126.731 Y102.248 E15.64887
G1 X127.427 Y102.234 E15.6836
G1 X127.514 Y102.236 E15.68794
G1 X127.774 Y101.699 E15.71771
G1 X128.18 Y101.045 E15.75611
G1 X128.651 Y100.437 E15.79448
G1 X129.183 Y99.882 E15.83284
G1 X129.769 Y99.384 E15.8712
G1 X130.405 Y98.95 E15.90962
G1 X131.081 Y98.585 E15.94794
G1 X131.792 Y98.291 E15.98633
G1 X132.53 Y98.073 E16.02472
G1 X133.286 Y97.933 E16.06308
G1 X134.053 Y97.872 E16.10147
G1 X134.464 Y97.872 E16.12197
G1 X135.849 Y97.911 E16.1911
G1 X136.616 Y97.973 E16.22949
G1 X137.372 Y98.113 E16.26785
G1 X138.11 Y98.332 E16.30625
G1 X138.82 Y98.626 E16.34459
G1 X139.497 Y98.992 E16.38299
G1 X140.132 Y99.426 E16.42136
G1 X140.718 Y99.924 E16.45973
G1 X141.249 Y100.48 E16.49808
G1 X141.72 Y101.088 E16.53645
G1 X142.125 Y101.742 E16.57483
G1 X142.46 Y102.435 E16.61323
G1 X142.722 Y103.158 E16.6516
G1 X142.907 Y103.905 E16.68999
G1 X143.013 Y104.666 E16.72832
G1 X143.041 Y105.319 E16.76093
G1 X143.033 Y110.66 E17.0274
G1 X142.992 Y111.428 E17.06577
G1 X142.838 Y112.338 E17.11181
G1 X142.785 Y112.562 E17.1233
G1 X142.839 Y112.647 E17.12832
G1 X143.179 Y113.337 E17.1667
G1 X143.445 Y114.059 E17.20508
G1 X143.636 Y114.804 E17.24346
G1 X143.747 Y115.565 E17.28182
G1 X143.78 Y116.333 E17.32017
G1 X143.732 Y117.101 E17.35856
G1 X143.605 Y117.859 E17.39691
G1 X143.373 Y118.678 E17.43938
G1 X143.309 Y118.863 E17.44914
G1 X143.02 Y119.576 E17.48753
G1 X142.982 Y119.647 E17.49154
G1 X142.753 Y120.17 E17.52003
G1 X142.372 Y120.838 E17.55839
G1 X141.931 Y121.454 E17.59619
G1 X141.483 Y122.017 E17.63209
G1 X140.974 Y122.593 E17.67043
G1 X140.407 Y123.113 E17.70882
G1 X139.79 Y123.572 E17.74718
G1 X139.128 Y123.963 E17.78554
G1 X138.865 Y124.08 E17.7999
G1 X138.62 Y124.235 E17.81437
G1 X137.931 Y124.577 E17.85274
G1 X137.21 Y124.845 E17.89112
G1 X136.465 Y125.037 E17.9295
G1 X135.704 Y125.151 E17.96789
G1 X134.936 Y125.185 E18.00624
G1 X134.168 Y125.139 E18.04463
G1 X133.409 Y125.014 E18.083
G1 X132.574 Y124.778 E18.12629
G1 X132.389 Y124.714 E18.13606
G1 X131.676 Y124.425 E18.17444
G1 X131.612 Y124.391 E18.17806
G1 X131.265 Y124.248 E18.19678
G1 X130.471 Y123.81 E18.24202
G1 X130.055 Y123.546 E18.26661
G1 X129.428 Y123.101 E18.30496
G1 X128.85 Y122.593 E18.34335
G1 X128.329 Y122.027 E18.38173
G1 X127.831 Y121.355 E18.42346
G1 X127.481 Y120.821 E18.45532
G1 X127.093 Y120.156 E18.49373
G1 X127.068 Y120.101 E18.49674
G1 X126.975 Y119.95 E18.50559
G1 X126.641 Y119.257 E18.54397
G1 X126.412 Y118.619 E18.57779
G1 X121.619 Y118.619 E18.81691
G1 X121.459 Y118.936 E18.83463
G1 X121.043 Y119.583 E18.873
G1 X120.562 Y120.183 E18.91137
G1 X120.021 Y120.73 E18.94975
G1 X119.426 Y121.218 E18.98814
G1 X118.784 Y121.641 E19.0265
G1 X118.101 Y121.996 E19.0649
G1 X117.386 Y122.277 E19.10323
G1 X116.644 Y122.483 E19.14165
G1 X115.886 Y122.611 E19.18
G1 X115.037 Y122.66 E19.22243
G1 X100.036 Y122.661 E19.97083
G1 X99.268 Y122.621 E20.0092
G1 X98.851 Y122.556 E20.03025
G1 X98.24 Y122.873 E20.0646
G1 X97.525 Y123.154 E20.10292
G1 X96.783 Y123.36 E20.14134
G1 X96.025 Y123.488 E20.17969
G1 X95.176 Y123.537 E20.22212
G1 X78.175 Y123.537 E21.0703
G1 X77.407 Y123.497 E21.10867
G1 X76.647 Y123.378 E21.14705
G1 X75.904 Y123.18 E21.18541
G1 X75.185 Y122.906 E21.2238
G1 X74.499 Y122.559 E21.26215
G1 X73.852 Y122.143 E21.30053
G1 X73.252 Y121.662 E21.3389
G1 X72.705 Y121.121 E21.37728
G1 X72.217 Y120.526 E21.41567
G1 X71.794 Y119.884 E21.45403
G1 X71.439 Y119.201 E21.49243
G1 X71.158 Y118.486 E21.53076
G1 X70.952 Y117.744 E21.56918
G1 X70.824 Y116.986 E21.60753
G1 X70.775 Y116.137 E21.64996
G1 X70.775 Y101.138 E22.39826
G1 X70.815 Y100.37 E22.43663
G1 X70.934 Y99.61 E22.475
G1 X71.132 Y98.867 E22.51337
G1 X71.406 Y98.148 E22.55175
G1 X71.753 Y97.462 E22.59011
G1 X72.169 Y96.815 E22.62848
G1 X72.65 Y96.215 E22.66685
G1 X73.191 Y95.668 E22.70523
G1 X73.786 Y95.18 E22.74362
G0 F3000 X74.173 Y95.395
G1 F1800 X74.809 Y95 E22.78098
G1 X75.483 Y94.676 E22.81829
G1 X76.188 Y94.426 E22.8556
G1 X76.916 Y94.252 E22.89295
G1 X77.658 Y94.157 E22.93027
G1 X78.175 Y94.138 E22.95608
G1 X89.793 Y94.138 E23.5357
G1 X89.793 Y86.659 E23.90883
G1 X89.833 Y85.912 E23.94615
G1 X89.952 Y85.174 E23.98345
G1 X90.15 Y84.452 E24.0208
G1 X90.423 Y83.756 E24.0581
G1 X90.77 Y83.093 E24.09543
G1 X91.185 Y82.47 E24.13278
G1 X91.664 Y81.896 E24.17008
G1 X92.201 Y81.375 E24.2074
G1 X92.791 Y80.916 E24.2447
G1 X93.427 Y80.521 E24.28205
G1 X94.101 Y80.197 E24.31936
G1 X94.806 Y79.947 E24.35668
G1 X95.534 Y79.773 E24.39402
G1 X96.276 Y79.678 E24.43134
G1 X96.793 Y79.659 E24.45715
G1 X97.078 Y79.659 E24.47137
G1 X97.825 Y79.699 E24.50869
G1 X97.899 Y79.711 E24.51243
G1 X113.855 Y79.711 E25.30848
G1 X114.602 Y79.751 E25.3458
G1 X115.34 Y79.87 E25.3831
G1 X116.062 Y80.068 E25.42045
G1 X116.758 Y80.341 E25.45775
G1 X117.421 Y80.688 E25.49508
G1 X118.044 Y81.103 E25.53243
G1 X118.618 Y81.582 E25.56972
G1 X119.139 Y82.119 E25.60705
G1 X119.598 Y82.709 E25.64435
G1 X119.993 Y83.345 E25.6817
G1 X120.317 Y84.019 E25.71901
G1 X120.567 Y84.724 E25.75633
G1 X120.741 Y85.452 E25.79367
G1 X120.836 Y86.194 E25.83099
G1 X120.854 Y86.832 E25.86283
G1 X120.587 Y102.28 E26.63365
G1 X120.55 Y102.801 E26.65971
G1 X125.733 Y102.801 E26.91829
G1 X126.299 Y102.694 E26.94703
G1 X127.417 Y102.633 E27.00289
G1 X127.774 Y102.642 E27.0207
G1 X127.831 Y102.49 E27.0288
G1 X128.165 Y101.82 E27.06615
G1 X128.567 Y101.19 E27.10344
G1 X129.035 Y100.606 E27.14077
G1 X129.563 Y100.076 E27.1781
G1 X130.144 Y99.604 E27.21544
G1 X130.772 Y99.198 E27.25275
G1 X131.439 Y98.861 E27.29004
G1 X132.139 Y98.597 E27.32736
G1 X132.863 Y98.409 E27.36468
G1 X133.603 Y98.299 E27.402
G1 X134.453 Y98.272 E27.44443
G1 X135.838 Y98.311 E27.51356
G1 X136.584 Y98.372 E27.5509
G1 X137.318 Y98.512 E27.58818
G1 X138.034 Y98.73 E27.62552
G1 X138.722 Y99.023 E27.66283
G1 X139.376 Y99.387 E27.70017
G1 X139.986 Y99.82 E27.73749
G1 X140.547 Y100.315 E27.77481
G1 X141.052 Y100.867 E27.81214
G1 X141.495 Y101.47 E27.84947
G1 X141.871 Y102.116 E27.88676
G1 X142.176 Y102.799 E27.92408
G1 X142.406 Y103.511 E27.96141
G1 X142.56 Y104.243 E27.99873
G1 X142.641 Y105.318 E28.05251
G1 X142.633 Y110.659 E28.31897
G1 X142.592 Y111.406 E28.3563
G1 X142.448 Y112.246 E28.39882
G1 X142.373 Y112.566 E28.41521
G1 X142.354 Y112.63 E28.41855
G1 X142.558 Y112.968 E28.43824
G1 X142.874 Y113.646 E28.47556
G1 X143.116 Y114.354 E28.51289
G1 X143.281 Y115.084 E28.55023
G1 X143.367 Y115.827 E28.58754
G1 X143.373 Y116.575 E28.62486
G1 X143.299 Y117.32 E28.66221
G1 X143.146 Y118.052 E28.69952
G1 X142.995 Y118.548 E28.72539
G1 X142.931 Y118.733 E28.73516
G1 X142.649 Y119.425 E28.77244
G1 X142.623 Y119.474 E28.7752
G1 X142.377 Y120.026 E28.80535
G1 X142.002 Y120.674 E28.84271
G1 X141.618 Y121.205 E28.8754
G1 X141.17 Y121.768 E28.9113
G1 X140.674 Y122.327 E28.94858
G1 X140.121 Y122.831 E28.98591
G1 X139.517 Y123.272 E29.02322
G1 X138.869 Y123.647 E29.06057
G1 X138.646 Y123.744 E29.0727
G1 X138.298 Y123.956 E29.09303
G1 X137.62 Y124.273 E29.13037
G1 X136.913 Y124.517 E29.16769
G1 X136.184 Y124.683 E29.20499
G1 X135.441 Y124.771 E29.24232
G1 X134.693 Y124.779 E29.27964
G1 X133.948 Y124.707 E29.31698
G1 X133.216 Y124.556 E29.35427
G1 X132.704 Y124.4 E29.38097
G1 X132.519 Y124.336 E29.39074
G1 X131.827 Y124.054 E29.42802
G1 X131.77 Y124.024 E29.43123
G1 X131.4 Y123.869 E29.45124
G1 X130.685 Y123.472 E29.49204
G1 X130.269 Y123.208 E29.51663
G1 X129.66 Y122.774 E29.55393
G1 X129.1 Y122.278 E29.59126
G1 X128.597 Y121.724 E29.62859
G1 X128.165 Y121.135 E29.66503
G1 X127.815 Y120.601 E29.69688
G1 X127.439 Y119.955 E29.73417
G1 X127.407 Y119.882 E29.73815
G1 X127.258 Y119.631 E29.75271
G1 X126.948 Y118.95 E29.79004
G1 X126.713 Y118.24 E29.82736
G1 X126.708 Y118.219 E29.82843
G1 X121.378 Y118.219 E30.09435
G1 X121.06 Y118.826 E30.12853
G1 X120.645 Y119.449 E30.16588
G1 X120.166 Y120.023 E30.20318
G1 X119.629 Y120.544 E30.24051
G1 X119.039 Y121.003 E30.2778
G1 X118.403 Y121.398 E30.31515
G1 X117.729 Y121.722 E30.35246
G1 X117.024 Y121.972 E30.38978
G1 X116.296 Y122.146 E30.42712
G1 X115.554 Y122.241 E30.46444
G1 X115.037 Y122.26 E30.49026
G1 X100.036 Y122.261 E31.23866
G1 X99.289 Y122.221 E31.27598
G1 X98.765 Y122.137 E31.30246
G1 X98.542 Y122.275 E31.31554
G1 X97.868 Y122.599 E31.35285
G1 X97.163 Y122.849 E31.39017
G1 X96.435 Y123.023 E31.42751
G1 X95.693 Y123.118 E31.46483
G1 X95.176 Y123.137 E31.49064
G1 X78.175 Y123.137 E32.33883
G1 X77.428 Y123.097 E32.37615
G1 X76.69 Y122.978 E32.41344
G1 X75.968 Y122.78 E32.45079
G1 X75.272 Y122.507 E32.48809
G1 X74.609 Y122.16 E32.52542
G1 X73.986 Y121.745 E32.56277
G1 X73.412 Y121.266 E32.60007
G1 X72.891 Y120.729 E32.6374
G1 X72.432 Y120.139 E32.67469
G1 X72.037 Y119.503 E32.71204
G1 X71.713 Y118.829 E32.74935
G1 X71.463 Y118.124 E32.78667
G1 X71.289 Y117.396 E32.82401
G1 X71.194 Y116.654 E32.86133
G1 X71.175 Y116.137 E32.88715
G1 X71.175 Y101.138 E33.63545
G1 X71.215 Y100.391 E33.67277
G1 X71.334 Y99.653 E33.71006
G1 X71.532 Y98.931 E33.74742
G1 X71.805 Y98.235 E33.78471
G1 X72.152 Y97.572 E33.82205
G1 X72.567 Y96.949 E33.85939
G1 X73.046 Y96.375 E33.89669
G1 X73.583 Y95.854 E33.93402
G1 X74.173 Y95.395 E33.97131
G0 F3000 X73.974 Y96.047
