;FLAVOR:Marlin
;TIME:10375
;Filament used: 11.9178m
;Layer height: 0.2
;Generated with Cura_SteamEngine 3.2.1
M104 S215
M109 S215
M82 ;absolute extrusion mode
G28 ;Home
G1 Z15.0 F6000 ;Move the platform down 15mm
;Prime the extruder
G92 E0
G1 F200 E3
G92 E0
;LAYER_COUNT:86
;LAYER:0
M106 S255
G0 F3000 X94.36 Y67.91 Z0.3
;TYPE:SKIRT
G1 F1800 X94.968 Y67.07 E0.05173
G1 X95.463 Y66.454 E0.09116
G1 X96.018 Y65.892 E0.13056
G1 X96.626 Y65.389 E0.16993
G1 X97.283 Y64.949 E0.20938
G1 X97.98 Y64.579 E0.24875
G1 X98.711 Y64.281 E0.28814
G1 X99.469 Y64.058 E0.32755
G1 X100.245 Y63.913 E0.36694
G1 X101.032 Y63.847 E0.40634
G1 X101.821 Y63.861 E0.44571
G1 X102.606 Y63.955 E0.48515
G1 X103.376 Y64.128 E0.52453
G1 X104.125 Y64.378 E0.56392
G1 X104.845 Y64.702 E0.60331
G1 X105.529 Y65.097 E0.64272
G1 X106.169 Y65.56 E0.68213
G1 X106.759 Y66.085 E0.72153
G1 X107.293 Y66.666 E0.7609
G1 X107.607 Y67.071 E0.78647
G1 X132.935 Y102.081 E2.94228
G1 X133.547 Y103.078 E3.00065
G1 X134.583 Y105.086 E3.11337
G1 X134.689 Y99.004 E3.41685
G1 X134.743 Y98.216 E3.45626
G1 X134.876 Y97.437 E3.49568
G1 X135.087 Y96.676 E3.53508
G1 X135.374 Y95.941 E3.57445
G1 X135.521 Y95.654 E3.59054
G1 X135.386 Y95.526 E3.59982
G1 X133.598 Y93.707 E3.72707
G1 X133.074 Y93.116 E3.76647
G1 X132.595 Y92.449 E3.80744
G1 X131.037 Y90.019 E3.95145
G1 X130.645 Y89.333 E3.99087
G1 X130.228 Y88.349 E4.04419
G1 X128.063 Y82.062 E4.37593
G1 X127.844 Y81.303 E4.41534
G1 X127.671 Y80.24 E4.46907
G1 X126.985 Y72.823 E4.84068
G1 X126.953 Y71.969 E4.88332
G1 X127.381 Y47.435 E6.10751
G1 X127.435 Y46.647 E6.14692
G1 X127.568 Y45.869 E6.1863
G1 X127.779 Y45.108 E6.22569
G1 X128.066 Y44.372 E6.26511
G1 X128.426 Y43.669 E6.30451
G1 X128.855 Y43.006 E6.34391
G1 X129.349 Y42.39 E6.3833
G1 X129.903 Y41.827 E6.42271
G1 X130.511 Y41.323 E6.46211
G1 X131.166 Y40.883 E6.50148
G1 X131.863 Y40.511 E6.54089
G1 X132.594 Y40.212 E6.58029
G1 X133.351 Y39.988 E6.61968
G1 X134.127 Y39.842 E6.65907
G1 X134.914 Y39.776 E6.69848
G1 X135.316 Y39.772 E6.71853
G1 X156.383 Y40.14 E7.76973
G1 X157.171 Y40.194 E7.80914
G1 X157.949 Y40.327 E7.84851
G1 X158.71 Y40.538 E7.88791
G1 X159.446 Y40.825 E7.92732
G1 X160.149 Y41.185 E7.96673
G1 X160.812 Y41.614 E8.00613
G1 X161.428 Y42.108 E8.04552
G1 X161.991 Y42.662 E8.08493
G1 X162.495 Y43.27 E8.12433
G1 X162.935 Y43.926 E8.16373
G1 X163.307 Y44.622 E8.20311
G1 X163.606 Y45.353 E8.24251
G1 X163.83 Y46.11 E8.28189
G1 X163.976 Y46.887 E8.32134
G1 X164.042 Y47.673 E8.36069
G1 X164.046 Y48.075 E8.38075
G1 X163.619 Y72.604 E9.60469
G1 X163.559 Y73.439 E9.64645
G1 X162.635 Y80.8 E10.01658
G1 X162.497 Y81.578 E10.056
G1 X162.178 Y82.624 E10.11056
G1 X159.783 Y88.864 E10.44401
G1 X159.463 Y89.586 E10.48341
G1 X158.915 Y90.507 E10.53688
G1 X158.15 Y91.612 E10.60393
G1 X163.691 Y91.709 E10.88042
G1 X164.479 Y91.763 E10.91982
G1 X165.257 Y91.896 E10.9592
G1 X166.018 Y92.107 E10.9986
G1 X166.754 Y92.394 E11.03801
G1 X167.457 Y92.754 E11.07742
G1 X168.12 Y93.183 E11.11681
G1 X168.736 Y93.677 E11.15621
G1 X169.299 Y94.231 E11.19561
G1 X169.803 Y94.839 E11.23501
G1 X170.243 Y95.495 E11.27442
G1 X170.615 Y96.191 E11.31379
G1 X170.914 Y96.922 E11.3532
G1 X171.138 Y97.679 E11.39258
G1 X171.284 Y98.456 E11.43203
G1 X171.35 Y99.242 E11.47138
G1 X171.354 Y99.644 E11.49143
G1 X171.217 Y107.517 E11.88428
G1 X171.565 Y107.208 E11.9075
G1 X172.226 Y106.734 E11.94808
G1 X174.988 Y104.964 E12.11174
G1 X175.674 Y104.572 E12.15116
G1 X176.46 Y104.227 E12.19398
G1 X179.481 Y103.095 E12.35494
G1 X180.234 Y102.856 E12.39435
G1 X181.081 Y102.682 E12.43749
G1 X184.243 Y102.216 E12.59695
G1 X185.029 Y102.141 E12.63634
G1 X185.974 Y102.156 E12.68349
G1 X186.013 Y102.159 E12.68544
G1 X186.339 Y102.114 E12.70186
G1 X186.745 Y102.09 E12.72215
G1 X198.024 Y101.706 E13.28519
G1 X198.813 Y101.719 E13.32456
G1 X199.597 Y101.812 E13.36395
G1 X200.368 Y101.983 E13.40335
G1 X201.118 Y102.232 E13.44277
G1 X201.838 Y102.555 E13.48214
G1 X202.522 Y102.95 E13.52155
G1 X203.163 Y103.411 E13.56094
G1 X203.754 Y103.935 E13.60034
G1 X204.288 Y104.516 E13.63971
G1 X204.762 Y105.149 E13.67917
G1 X205.169 Y105.825 E13.71853
G1 X205.505 Y106.54 E13.75795
G1 X205.767 Y107.285 E13.79735
G1 X205.953 Y108.052 E13.83672
G1 X206.06 Y108.834 E13.8761
G1 X206.089 Y109.501 E13.90941
G1 X206.089 Y145.819 E15.72132
G1 X206.049 Y146.608 E15.76073
G1 X205.93 Y147.388 E15.8001
G1 X205.732 Y148.153 E15.83952
G1 X205.458 Y148.893 E15.87889
G1 X205.11 Y149.602 E15.91829
G1 X204.692 Y150.273 E15.95773
G1 X204.209 Y150.897 E15.9971
G1 X203.666 Y151.47 E16.03649
G1 X203.067 Y151.985 E16.0759
G1 X202.419 Y152.436 E16.11529
G1 X201.728 Y152.82 E16.15473
G1 X201.003 Y153.132 E16.1941
G1 X200.25 Y153.369 E16.23349
G1 X199.476 Y153.528 E16.27291
G1 X198.554 Y153.615 E16.31911
G1 X188.578 Y153.954 E16.8171
G1 X187.788 Y153.94 E16.85652
G1 X187.731 Y153.933 E16.85939
G1 X187.003 Y154 E16.89586
G1 X186.11 Y153.986 E16.94042
G1 X182.926 Y153.752 E17.0997
G1 X182.766 Y153.732 E17.10774
G1 X185.097 Y154.887 E17.23753
G1 X185.786 Y155.273 E17.27693
G1 X186.345 Y155.659 E17.31082
G1 X189.116 Y157.759 E17.48428
G1 X189.721 Y158.268 E17.52373
G1 X190.248 Y158.809 E17.56141
G1 X192.521 Y161.379 E17.73258
G1 X193.013 Y161.996 E17.77195
G1 X193.436 Y162.651 E17.81085
G1 X195.123 Y165.578 E17.9794
G1 X195.482 Y166.281 E18.01878
G1 X195.776 Y167.04 E18.05939
G1 X196.82 Y170.22 E18.22637
G1 X197.028 Y170.982 E18.26578
G1 X197.166 Y171.84 E18.30913
G1 X197.513 Y175.15 E18.47517
G1 X197.556 Y175.938 E18.51454
G1 X197.513 Y176.779 E18.55656
G1 X197.505 Y176.856 E18.56042
G1 X197.546 Y177.254 E18.58038
G1 X197.556 Y177.656 E18.60044
G1 X197.556 Y186.112 E19.02231
G1 X197.516 Y186.901 E19.06173
G1 X197.397 Y187.681 E19.10109
G1 X197.199 Y188.446 E19.14052
G1 X196.925 Y189.186 E19.17988
G1 X196.577 Y189.895 E19.21929
G1 X196.159 Y190.566 E19.25873
G1 X195.676 Y191.19 E19.2981
G1 X195.133 Y191.763 E19.33748
G1 X194.534 Y192.278 E19.37689
G1 X193.886 Y192.729 E19.41628
G1 X193.195 Y193.113 E19.45572
G1 X192.47 Y193.425 E19.4951
G1 X191.717 Y193.662 E19.53448
G1 X190.943 Y193.821 E19.5739
G1 X190.158 Y193.902 E19.61327
G1 X189.756 Y193.912 E19.63334
G1 X153.166 Y193.912 E21.45882
G1 X152.377 Y193.872 E21.49823
G1 X151.597 Y193.753 E21.5376
G1 X150.832 Y193.555 E21.57702
G1 X150.092 Y193.281 E21.61639
G1 X149.383 Y192.933 E21.65579
G1 X148.712 Y192.515 E21.69523
G1 X148.088 Y192.032 E21.7346
G1 X147.515 Y191.489 E21.77399
G1 X147 Y190.89 E21.8134
G1 X146.549 Y190.242 E21.85278
G1 X146.165 Y189.551 E21.89222
G1 X145.853 Y188.826 E21.9316
G1 X145.616 Y188.073 E21.97099
G1 X145.457 Y187.299 E22.01041
G1 X145.376 Y186.514 E22.04978
G1 X145.366 Y186.112 E22.06984
G1 X145.366 Y177.656 E22.49171
G1 X145.406 Y176.867 E22.53113
G1 X145.413 Y176.821 E22.53345
G1 X145.411 Y176.803 E22.53435
G1 X145.366 Y176.014 E22.57378
G1 X145.411 Y175.132 E22.61784
G1 X145.768 Y171.818 E22.78413
G1 X145.892 Y171.038 E22.82353
G1 X146.105 Y170.241 E22.86469
G1 X147.139 Y167.061 E23.03152
G1 X147.421 Y166.323 E23.07094
G1 X147.809 Y165.561 E23.1136
G1 X149.506 Y162.634 E23.28239
G1 X149.936 Y161.971 E23.32182
G1 X150.411 Y161.379 E23.35968
G1 X152.684 Y158.809 E23.53086
G1 X153.237 Y158.244 E23.5703
G1 X153.816 Y157.759 E23.60798
G1 X156.587 Y155.659 E23.78144
G1 X157.24 Y155.215 E23.82084
G1 X157.827 Y154.891 E23.85429
G1 X160.99 Y153.319 E24.0305
G1 X161.714 Y153.004 E24.06989
G1 X162.362 Y152.792 E24.10391
G1 X165.794 Y151.833 E24.28169
G1 X166.564 Y151.659 E24.32108
G1 X167.175 Y151.578 E24.35183
G1 X170.743 Y151.248 E24.53059
G1 X171.532 Y151.215 E24.56999
G1 X172.177 Y151.248 E24.60221
G1 X175.755 Y151.578 E24.78148
G1 X176.212 Y151.643 E24.80451
G1 X173.75 Y150.283 E24.94483
G1 X173.08 Y149.867 E24.98418
G1 X172.471 Y149.399 E25.02249
G1 X169.925 Y147.235 E25.1892
G1 X169.35 Y146.694 E25.22859
G1 X168.866 Y146.14 E25.26529
G1 X166.736 Y143.455 E25.43627
G1 X166.277 Y142.812 E25.47569
G1 X166.021 Y142.369 E25.50122
G1 X164.581 Y144.448 E25.62739
G1 X164.099 Y145.074 E25.6668
G1 X163.542 Y145.661 E25.70718
G1 X161.691 Y147.42 E25.83457
G1 X161.092 Y147.934 E25.87395
G1 X160.444 Y148.386 E25.91336
G1 X159.989 Y148.648 E25.93956
G1 X157.989 Y149.715 E26.05265
G1 X157.275 Y150.051 E26.09202
G1 X156.53 Y150.313 E26.13142
G1 X155.568 Y150.532 E26.18064
G1 X153.511 Y150.866 E26.28461
G1 X152.726 Y150.953 E26.32401
G1 X151.937 Y150.96 E26.36338
G1 X151.15 Y150.888 E26.40281
G1 X150.75 Y150.819 E26.42306
G1 X148.694 Y150.413 E26.52761
G1 X147.928 Y150.221 E26.56701
G1 X147.185 Y149.953 E26.60642
G1 X146.285 Y149.504 E26.65659
G1 X144.336 Y148.371 E26.76907
G1 X143.674 Y147.94 E26.80848
G1 X143.059 Y147.445 E26.84786
G1 X142.69 Y147.093 E26.87331
G1 X140.903 Y145.273 E27.00056
G1 X140.379 Y144.682 E27.03996
G1 X139.904 Y144.02 E27.08061
G1 X138.345 Y141.59 E27.22465
G1 X137.953 Y140.905 E27.26403
G1 X137.535 Y139.917 E27.31755
G1 X135.371 Y133.631 E27.64922
G1 X135.152 Y132.872 E27.68863
G1 X134.979 Y131.811 E27.74226
G1 X134.804 Y129.923 E27.83686
G1 X133.544 Y132.359 E27.97369
G1 X133.146 Y133.041 E28.01308
G1 X132.681 Y133.68 E28.05251
G1 X131.903 Y134.51 E28.10927
G1 X128.223 Y137.903 E28.35899
G1 X127.616 Y138.408 E28.39839
G1 X126.961 Y138.849 E28.43778
G1 X125.958 Y139.359 E28.49392
G1 X123.845 Y140.247 E28.60827
G1 X123.102 Y140.516 E28.64769
G1 X122.336 Y140.708 E28.68709
G1 X121.876 Y140.785 E28.71036
G1 X119.667 Y141.086 E28.82158
G1 X118.88 Y141.152 E28.86098
G1 X118.091 Y141.139 E28.90035
G1 X117.561 Y141.086 E28.92693
G1 X117.335 Y141.055 E28.93831
G1 X130.55 Y159.322 E30.06313
G1 X131.162 Y160.319 E30.12149
G1 X133.095 Y164.067 E30.33188
G1 X133.421 Y164.786 E30.37127
G1 X133.689 Y165.594 E30.41374
G1 X134.849 Y169.856 E30.63411
G1 X135.018 Y170.627 E30.67349
G1 X135.107 Y171.412 E30.7129
G1 X135.123 Y171.904 E30.73746
G1 X135.123 Y178.01 E31.04209
G1 X135.083 Y178.799 E31.0815
G1 X134.964 Y179.579 E31.12087
G1 X134.849 Y180.06 E31.14554
G1 X133.682 Y184.345 E31.36711
G1 X133.436 Y185.095 E31.40649
G1 X133.084 Y185.879 E31.44936
G1 X131.159 Y189.6 E31.65838
G1 X130.761 Y190.282 E31.69777
G1 X130.296 Y190.921 E31.7372
G1 X129.518 Y191.751 E31.79395
G1 X125.838 Y195.144 E32.04368
G1 X125.231 Y195.649 E32.08307
G1 X124.576 Y196.09 E32.12247
G1 X123.573 Y196.6 E32.1786
G1 X121.46 Y197.488 E32.29295
G1 X120.717 Y197.757 E32.33238
G1 X119.951 Y197.949 E32.37177
G1 X119.491 Y198.026 E32.39504
G1 X117.282 Y198.327 E32.50627
G1 X116.495 Y198.393 E32.54567
G1 X115.706 Y198.38 E32.58504
G1 X115.176 Y198.327 E32.61161
G1 X112.967 Y198.026 E32.72284
G1 X112.191 Y197.879 E32.76224
G1 X111.434 Y197.656 E32.80161
G1 X110.999 Y197.488 E32.82488
G1 X108.885 Y196.6 E32.93927
G1 X108.174 Y196.258 E32.97863
G1 X107.264 Y195.677 E33.0325
G1 X105.302 Y194.224 E33.1543
G1 X104.692 Y193.723 E33.19368
G1 X104.074 Y193.092 E33.23775
G1 X102.311 Y191.077 E33.37132
G1 X101.861 Y190.512 E33.40736
G1 X76.587 Y155.566 E35.55901
G1 X76.157 Y154.904 E35.59839
G1 X75.796 Y154.201 E35.63782
G1 X75.509 Y153.466 E35.67719
G1 X75.297 Y152.705 E35.7166
G1 X75.163 Y151.927 E35.75598
G1 X75.108 Y151.139 E35.79539
G1 X75.134 Y150.35 E35.83478
G1 X75.239 Y149.567 E35.87419
G1 X75.423 Y148.799 E35.91359
G1 X75.683 Y148.053 E35.953
G1 X76.017 Y147.338 E35.99238
G1 X76.587 Y146.423 E36.04616
G1 X85.281 Y134.405 E36.78618
G1 X85.776 Y133.79 E36.82557
G1 X86.33 Y133.227 E36.86497
G1 X86.939 Y132.724 E36.90438
G1 X87.595 Y132.284 E36.94379
G1 X88.292 Y131.914 E36.98316
G1 X89.023 Y131.615 E37.02256
G1 X89.781 Y131.392 E37.06198
G1 X90.494 Y131.259 E37.09816
G1 X90.494 Y129.724 E37.17475
G1 X90.534 Y128.935 E37.21416
G1 X90.653 Y128.155 E37.25352
G1 X90.851 Y127.39 E37.29295
G1 X91.125 Y126.65 E37.33232
G1 X91.473 Y125.941 E37.37172
G1 X91.975 Y125.151 E37.41842
G1 X92.583 Y124.311 E37.47015
G1 X93.078 Y123.695 E37.50958
G1 X93.633 Y123.133 E37.54898
G1 X94.241 Y122.63 E37.58835
G1 X94.898 Y122.19 E37.6278
G1 X95.595 Y121.82 E37.66717
G1 X95.88 Y121.704 E37.68252
G1 X78.972 Y98.325 E39.12197
G1 X78.542 Y97.663 E39.16135
G1 X78.181 Y96.96 E39.20078
G1 X77.894 Y96.225 E39.24015
G1 X77.682 Y95.464 E39.27956
G1 X77.548 Y94.686 E39.31894
G1 X77.493 Y93.898 E39.35835
G1 X77.519 Y93.109 E39.39774
G1 X77.624 Y92.326 E39.43715
G1 X77.808 Y91.558 E39.47655
G1 X78.068 Y90.812 E39.51597
G1 X78.402 Y90.097 E39.55534
G1 X78.972 Y89.182 E39.60912
G1 X87.666 Y77.164 E40.34914
G1 X88.161 Y76.549 E40.38853
G1 X88.715 Y75.986 E40.42793
G1 X89.324 Y75.483 E40.46734
G1 X89.98 Y75.043 E40.50675
G1 X90.677 Y74.673 E40.54612
G1 X91.408 Y74.374 E40.58552
G1 X92.166 Y74.151 E40.62494
G1 X92.879 Y74.018 E40.66112
G1 X92.879 Y72.483 E40.73771
G1 X92.919 Y71.694 E40.77712
G1 X93.038 Y70.914 E40.81648
G1 X93.236 Y70.149 E40.85591
G1 X93.51 Y69.409 E40.89528
G1 X93.858 Y68.7 E40.93468
G1 X94.36 Y67.91 E40.98138
G0 F3000 X94.684 Y68.144
G1 F1800 X95.292 Y67.304 E41.03311
G1 X95.775 Y66.705 E41.0715
G1 X96.318 Y66.16 E41.10988
G1 X96.914 Y65.674 E41.14825
G1 X97.557 Y65.252 E41.18662
G1 X98.24 Y64.899 E41.22498
G1 X98.957 Y64.619 E41.26338
G1 X99.698 Y64.416 E41.30171
G1 X100.457 Y64.29 E41.3401
G1 X101.225 Y64.243 E41.37848
G1 X101.993 Y64.277 E41.41684
G1 X102.754 Y64.39 E41.45522
G1 X103.499 Y64.581 E41.49359
G1 X104.22 Y64.849 E41.53196
G1 X104.909 Y65.19 E41.57032
G1 X105.56 Y65.601 E41.60873
G1 X106.164 Y66.077 E41.64709
G1 X106.715 Y66.614 E41.68548
G1 X107.283 Y67.306 E41.73014
G1 X132.611 Y102.316 E43.88596
G1 X133.192 Y103.261 E43.9413
G1 X134.955 Y106.679 E44.13318
G1 X135.089 Y99.011 E44.51579
G1 X135.143 Y98.243 E44.5542
G1 X135.275 Y97.486 E44.59254
G1 X135.486 Y96.746 E44.63093
G1 X135.772 Y96.032 E44.6693
G1 X136.015 Y95.571 E44.6953
G1 X135.987 Y95.548 E44.69711
G1 X135.672 Y95.245 E44.71892
G1 X133.884 Y93.426 E44.84617
G1 X133.374 Y92.851 E44.88451
G1 X132.931 Y92.233 E44.92245
G1 X131.373 Y89.803 E45.06646
G1 X130.993 Y89.135 E45.1048
G1 X130.606 Y88.218 E45.15446
G1 X128.441 Y81.931 E45.48619
G1 X128.229 Y81.192 E45.52455
G1 X128.069 Y80.204 E45.57448
G1 X127.383 Y72.787 E45.9461
G1 X127.353 Y71.976 E45.98659
G1 X127.781 Y47.442 E47.21078
G1 X127.834 Y46.675 E47.24914
G1 X127.967 Y45.917 E47.28753
G1 X128.178 Y45.177 E47.32592
G1 X128.464 Y44.463 E47.36429
G1 X128.823 Y43.783 E47.40266
G1 X129.251 Y43.144 E47.44103
G1 X129.742 Y42.552 E47.4794
G1 X130.292 Y42.015 E47.51775
G1 X130.896 Y41.537 E47.55618
G1 X131.545 Y41.125 E47.59453
G1 X132.234 Y40.783 E47.63291
G1 X132.954 Y40.514 E47.67125
G1 X133.699 Y40.321 E47.70965
G1 X134.459 Y40.206 E47.74799
G1 X135.309 Y40.172 E47.79044
G1 X156.376 Y40.54 E48.84163
G1 X157.144 Y40.594 E48.88004
G1 X157.901 Y40.726 E48.91838
G1 X158.641 Y40.937 E48.95677
G1 X159.355 Y41.223 E48.99514
G1 X160.035 Y41.582 E49.03351
G1 X160.674 Y42.01 E49.07188
G1 X161.266 Y42.501 E49.11025
G1 X161.803 Y43.052 E49.14863
G1 X162.281 Y43.655 E49.18702
G1 X162.693 Y44.304 E49.22537
G1 X163.035 Y44.993 E49.26375
G1 X163.304 Y45.713 E49.3021
G1 X163.497 Y46.458 E49.34049
G1 X163.612 Y47.219 E49.37889
G1 X163.646 Y48.068 E49.42128
G1 X163.219 Y72.597 E50.64522
G1 X163.162 Y73.39 E50.68489
G1 X162.238 Y80.751 E51.05501
G1 X162.103 Y81.508 E51.09337
G1 X161.805 Y82.481 E51.14414
G1 X159.41 Y88.721 E51.4776
G1 X159.097 Y89.423 E51.51595
G1 X158.587 Y90.279 E51.56566
G1 X157.397 Y91.999 E51.67
G1 X163.684 Y92.109 E51.98371
G1 X164.452 Y92.163 E52.02212
G1 X165.209 Y92.295 E52.06046
G1 X165.949 Y92.506 E52.09885
G1 X166.663 Y92.792 E52.13722
G1 X167.343 Y93.151 E52.17559
G1 X167.982 Y93.579 E52.21396
G1 X168.574 Y94.07 E52.25233
G1 X169.111 Y94.621 E52.29071
G1 X169.589 Y95.224 E52.3291
G1 X170.001 Y95.873 E52.36745
G1 X170.343 Y96.562 E52.40583
G1 X170.612 Y97.282 E52.44418
G1 X170.805 Y98.027 E52.48257
G1 X170.92 Y98.788 E52.52097
G1 X170.954 Y99.637 E52.56336
G1 X170.8 Y108.463 E53.00376
G1 X171.254 Y108.018 E53.03547
G1 X171.83 Y107.508 E53.07386
G1 X172.442 Y107.071 E53.11137
G1 X175.204 Y105.301 E53.27504
G1 X175.873 Y104.92 E53.31345
G1 X176.6 Y104.602 E53.35304
G1 X179.621 Y103.47 E53.51399
G1 X180.355 Y103.237 E53.55241
G1 X181.139 Y103.078 E53.59232
G1 X184.301 Y102.612 E53.75177
