;FLAVOR:Marlin
;TIME:28570
;Filament used: 31.731m
;Layer height: 0.2
;Generated with Cura_SteamEngine 3.2.1
M104 S215
M109 S215
M82 ;absolute extrusion mode
G28 ;Home
G1 Z15.0 F6000 ;Move the platform down 15mm
;Prime the extruder
G92 E0
G1 F200 E3
G92 E0
;LAYER_COUNT:120
;LAYER:0
M106 S255
G0 F3000 X17.882 Y23.203 Z0.3
;TYPE:SKIRT
G1 F1800 X18.522 Y22.74 E0.03941
G1 X19.205 Y22.344 E0.0788
G1 X19.925 Y22.02 E0.11819
G1 X20.674 Y21.77 E0.15758
G1 X21.444 Y21.597 E0.19696
G1 X22.228 Y21.503 E0.23635
G1 X22.63 Y21.485 E0.25643
G1 X192.748 Y18.515 E8.74494
G1 X193.537 Y18.541 E8.78432
G1 X194.32 Y18.647 E8.82375
G1 X195.087 Y18.832 E8.86311
G1 X195.833 Y19.093 E8.90254
G1 X196.548 Y19.428 E8.94193
G1 X197.225 Y19.834 E8.98131
G1 X197.858 Y20.306 E9.02071
G1 X198.44 Y20.84 E9.06011
G1 X198.965 Y21.43 E9.09952
G1 X199.428 Y22.069 E9.13888
G1 X199.824 Y22.753 E9.17832
G1 X200.148 Y23.473 E9.21771
G1 X200.398 Y24.222 E9.2571
G1 X200.571 Y24.992 E9.29647
G1 X200.665 Y25.776 E9.33587
G1 X200.684 Y26.321 E9.36307
G1 X200.547 Y179.506 E17.00551
G1 X200.506 Y180.295 E17.04492
G1 X200.386 Y181.075 E17.0843
G1 X200.188 Y181.839 E17.12367
G1 X199.913 Y182.58 E17.1631
G1 X199.565 Y183.289 E17.20251
G1 X199.146 Y183.958 E17.24189
G1 X198.663 Y184.583 E17.2813
G1 X198.118 Y185.155 E17.32071
G1 X197.519 Y185.669 E17.36009
G1 X196.871 Y186.12 E17.39948
G1 X196.18 Y186.503 E17.4389
G1 X195.454 Y186.814 E17.4783
G1 X194.701 Y187.05 E17.51767
G1 X193.927 Y187.209 E17.55709
G1 X192.747 Y187.299 E17.61613
G1 X25.387 Y187.299 E25.96576
G1 X24.598 Y187.259 E26.00517
G1 X23.818 Y187.14 E26.04454
G1 X23.053 Y186.942 E26.08396
G1 X22.313 Y186.668 E26.12333
G1 X21.604 Y186.32 E26.16273
G1 X20.933 Y185.902 E26.20217
G1 X20.309 Y185.419 E26.24154
G1 X19.736 Y184.876 E26.28092
G1 X19.221 Y184.277 E26.32033
G1 X18.77 Y183.629 E26.35972
G1 X18.386 Y182.938 E26.39916
G1 X18.074 Y182.213 E26.43854
G1 X17.837 Y181.46 E26.47792
G1 X17.678 Y180.686 E26.51734
G1 X17.588 Y179.635 E26.56997
G1 X14.967 Y29.42 E34.06537
G1 X14.993 Y28.631 E34.10475
G1 X15.099 Y27.848 E34.14417
G1 X15.284 Y27.08 E34.18359
G1 X15.545 Y26.335 E34.22297
G1 X15.88 Y25.62 E34.26236
G1 X16.286 Y24.943 E34.30175
G1 X16.758 Y24.31 E34.34114
G1 X17.292 Y23.728 E34.38054
G1 X17.882 Y23.203 E34.41995
G0 F3000 X18.274 Y23.404
G1 F1800 X18.908 Y22.969 E34.45831
G1 X19.585 Y22.603 E34.4967
G1 X20.295 Y22.309 E34.53504
G1 X21.033 Y22.09 E34.57345
G1 X21.789 Y21.949 E34.61181
G1 X22.637 Y21.885 E34.65424
G1 X192.755 Y18.915 E43.14276
G1 X193.524 Y18.942 E43.18114
G1 X194.285 Y19.048 E43.21948
G1 X195.032 Y19.233 E43.25787
G1 X195.755 Y19.494 E43.29622
G1 X196.448 Y19.829 E43.33462
G1 X197.102 Y20.234 E43.373
G1 X197.71 Y20.704 E43.41134
G1 X198.266 Y21.236 E43.44973
G1 X198.764 Y21.822 E43.4881
G1 X199.199 Y22.456 E43.52646
G1 X199.565 Y23.133 E43.56485
G1 X199.859 Y23.843 E43.60319
G1 X200.078 Y24.581 E43.6416
G1 X200.219 Y25.337 E43.67997
G1 X200.284 Y26.321 E43.72916
G1 X200.147 Y179.506 E51.3716
G1 X200.106 Y180.274 E51.40997
G1 X199.986 Y181.033 E51.44831
G1 X199.788 Y181.777 E51.48672
G1 X199.513 Y182.495 E51.52507
G1 X199.166 Y183.181 E51.56343
G1 X198.749 Y183.828 E51.60183
G1 X198.267 Y184.427 E51.64019
G1 X197.726 Y184.974 E51.67857
G1 X197.131 Y185.461 E51.71693
G1 X196.488 Y185.884 E51.75533
G1 X195.805 Y186.237 E51.79369
G1 X195.089 Y186.519 E51.83208
G1 X194.348 Y186.724 E51.87044
G1 X193.589 Y186.851 E51.90883
G1 X192.747 Y186.899 E51.95091
G1 X25.387 Y186.899 E60.30053
G1 X24.619 Y186.859 E60.3389
G1 X23.859 Y186.74 E60.37728
G1 X23.116 Y186.542 E60.41564
G1 X22.397 Y186.268 E60.45403
G1 X21.711 Y185.921 E60.49238
G1 X21.064 Y185.505 E60.53075
G1 X20.464 Y185.024 E60.56912
G1 X19.917 Y184.483 E60.6075
G1 X19.429 Y183.888 E60.6459
G1 X19.006 Y183.246 E60.68425
G1 X18.651 Y182.563 E60.72265
G1 X18.37 Y181.848 E60.76098
G1 X18.164 Y181.106 E60.7994
G1 X18.036 Y180.348 E60.83775
G1 X17.988 Y179.628 E60.87375
G1 X15.367 Y29.413 E68.36915
G1 X15.394 Y28.644 E68.40754
G1 X15.5 Y27.883 E68.44587
G1 X15.685 Y27.136 E68.48427
G1 X15.946 Y26.413 E68.52262
G1 X16.281 Y25.72 E68.56102
G1 X16.686 Y25.066 E68.5994
G1 X17.156 Y24.458 E68.63774
G1 X17.688 Y23.902 E68.67613
G1 X18.274 Y23.404 E68.71449
G0 F3000 X18.665 Y23.611
G1 F1800 X19.293 Y23.206 E68.75178
G1 X19.962 Y22.87 E68.78912
G1 X20.662 Y22.608 E68.82641
G1 X21.387 Y22.421 E68.86377
G1 X22.127 Y22.313 E68.90108
G1 X22.644 Y22.285 E68.92691
G1 X192.762 Y19.315 E77.41542
G1 X193.509 Y19.342 E77.45272
G1 X194.25 Y19.449 E77.49007
G1 X194.975 Y19.633 E77.52739
G1 X195.676 Y19.895 E77.56472
G1 X196.345 Y20.229 E77.60203
G1 X196.974 Y20.633 E77.63932
G1 X197.557 Y21.102 E77.67665
G1 X198.087 Y21.631 E77.71401
G1 X198.557 Y22.213 E77.75133
G1 X198.962 Y22.841 E77.78861
G1 X199.298 Y23.51 E77.82596
G1 X199.56 Y24.21 E77.86325
G1 X199.747 Y24.935 E77.90061
G1 X199.855 Y25.675 E77.93792
G1 X199.884 Y26.32 E77.97013
G1 X199.747 Y179.505 E85.61256
G1 X199.706 Y180.252 E85.64989
G1 X199.586 Y180.991 E85.68724
G1 X199.388 Y181.712 E85.72454
G1 X199.114 Y182.408 E85.76186
G1 X198.767 Y183.071 E85.79919
G1 X198.352 Y183.693 E85.8365
G1 X197.872 Y184.267 E85.87383
G1 X197.334 Y184.787 E85.91116
G1 X196.744 Y185.246 E85.94845
G1 X196.107 Y185.64 E85.98582
G1 X195.433 Y185.963 E86.02311
G1 X194.728 Y186.213 E86.06042
G1 X194 Y186.386 E86.09776
G1 X193.258 Y186.48 E86.13507
G1 X192.747 Y186.499 E86.16058
G1 X25.387 Y186.499 E94.51021
G1 X24.64 Y186.459 E94.54753
G1 X23.902 Y186.34 E94.58482
G1 X23.18 Y186.142 E94.62217
G1 X22.484 Y185.869 E94.65947
G1 X21.821 Y185.522 E94.69681
G1 X21.198 Y185.107 E94.73415
G1 X20.624 Y184.628 E94.77145
G1 X20.103 Y184.091 E94.80878
G1 X19.644 Y183.501 E94.84607
G1 X19.249 Y182.865 E94.88342
G1 X18.925 Y182.191 E94.92073
G1 X18.675 Y181.486 E94.95805
G1 X18.501 Y180.758 E94.99539
G1 X18.406 Y180.016 E95.03272
G1 X18.388 Y179.621 E95.05244
G1 X15.767 Y29.406 E102.54784
G1 X15.794 Y28.659 E102.58513
G1 X15.901 Y27.918 E102.62248
G1 X16.086 Y27.193 E102.65981
G1 X16.347 Y26.492 E102.69713
G1 X16.681 Y25.823 E102.73444
G1 X17.085 Y25.194 E102.77173
G1 X17.554 Y24.611 E102.80906
G1 X18.083 Y24.081 E102.84642
G1 X18.665 Y23.611 E102.88374
G0 F3000 X18.477 Y24.267
G1 F1800 X19.054 Y23.827 E102.91995
G1 X19.677 Y23.452 E102.95622
G1 X20.336 Y23.148 E102.99243
G1 X21.025 Y22.918 E103.02867
G1 X21.735 Y22.765 E103.0649
G1 X22.651 Y22.685 E103.11078
G1 X192.769 Y19.715 E111.59929
G1 X193.495 Y19.742 E111.63554
G1 X194.213 Y19.849 E111.67176
G1 X194.915 Y20.034 E111.70797
G1 X195.593 Y20.296 E111.74424
G1 X196.238 Y20.63 E111.78047
G1 X196.842 Y21.033 E111.8167
G1 X197.399 Y21.5 E111.85296
G1 X197.9 Y22.025 E111.88917
G1 X198.341 Y22.602 E111.9254
G1 X198.716 Y23.224 E111.96164
G1 X199.02 Y23.884 E111.99789
G1 X199.25 Y24.573 E112.03413
G1 X199.403 Y25.283 E112.07036
G1 X199.484 Y26.32 E112.12226
G1 X199.347 Y179.505 E119.76469
G1 X199.306 Y180.23 E119.80092
G1 X199.186 Y180.946 E119.83714
G1 X198.988 Y181.645 E119.87338
G1 X198.715 Y182.318 E119.90962
G1 X198.369 Y182.957 E119.94587
G1 X197.955 Y183.554 E119.98211
G1 X197.478 Y184.101 E120.01832
G1 X196.943 Y184.593 E120.05459
G1 X196.358 Y185.024 E120.09084
G1 X195.729 Y185.387 E120.12707
G1 X195.064 Y185.679 E120.1633
G1 X194.371 Y185.896 E120.19953
G1 X193.658 Y186.036 E120.23578
G1 X192.747 Y186.099 E120.28134
G1 X25.387 Y186.099 E128.63097
G1 X24.662 Y186.059 E128.66719
G1 X23.945 Y185.94 E128.70345
G1 X23.246 Y185.742 E128.7397
G1 X22.573 Y185.469 E128.77593
G1 X21.934 Y185.124 E128.81216
G1 X21.337 Y184.71 E128.84841
G1 X20.789 Y184.234 E128.88462
G1 X20.296 Y183.7 E128.92088
G1 X19.866 Y183.115 E128.9571
G1 X19.502 Y182.486 E128.99336
G1 X19.209 Y181.821 E129.02961
G1 X18.991 Y181.128 E129.06586
G1 X18.851 Y180.416 E129.10206
G1 X18.788 Y179.614 E129.14219
G1 X16.167 Y29.399 E136.63759
G1 X16.194 Y28.673 E136.67384
G1 X16.301 Y27.955 E136.71005
G1 X16.486 Y27.252 E136.74632
G1 X16.748 Y26.575 E136.78254
G1 X17.082 Y25.93 E136.81877
G1 X17.485 Y25.326 E136.855
G1 X17.952 Y24.769 E136.89126
G1 X18.477 Y24.267 E136.9275
G0 F3000 X18.87 Y24.461
G1 F1800 X19.442 Y24.05 E136.96264
G1 X20.057 Y23.707 E136.99777
G1 X20.707 Y23.436 E137.03291
G1 X21.383 Y23.24 E137.06802
G1 X22.077 Y23.122 E137.10314
G1 X22.658 Y23.085 E137.13219
G1 X192.776 Y20.115 E145.6207
G1 X193.479 Y20.143 E145.6558
G1 X194.175 Y20.25 E145.69094
G1 X194.854 Y20.435 E145.72605
G1 X195.508 Y20.697 E145.7612
G1 X196.128 Y21.03 E145.79631
G1 X196.706 Y21.432 E145.83143
G1 X197.235 Y21.897 E145.86657
G1 X197.707 Y22.418 E145.90164
G1 X198.118 Y22.99 E145.93678
G1 X198.461 Y23.605 E145.97192
G1 X198.732 Y24.255 E146.00705
G1 X198.928 Y24.931 E146.04216
G1 X199.046 Y25.625 E146.07729
G1 X199.084 Y26.32 E146.11201
G1 X198.947 Y179.505 E153.75444
G1 X198.906 Y180.207 E153.78953
G1 X198.786 Y180.901 E153.82466
G1 X198.589 Y181.577 E153.85979
G1 X198.315 Y182.225 E153.89489
G1 X197.97 Y182.839 E153.93003
G1 X197.558 Y183.41 E153.96516
G1 X197.084 Y183.93 E154.00026
G1 X196.553 Y184.393 E154.03541
G1 X195.974 Y184.793 E154.07052
G1 X195.353 Y185.125 E154.10565
G1 X194.699 Y185.384 E154.14075
G1 X194.019 Y185.567 E154.17588
G1 X193.323 Y185.672 E154.21099
G1 X192.747 Y185.699 E154.23976
G1 X25.387 Y185.699 E162.58939
G1 X24.684 Y185.659 E162.62452
G1 X23.99 Y185.54 E162.65965
G1 X23.315 Y185.342 E162.69474
G1 X22.666 Y185.07 E162.72985
G1 X22.052 Y184.725 E162.76498
G1 X21.481 Y184.314 E162.80008
G1 X20.96 Y183.84 E162.83522
G1 X20.496 Y183.31 E162.87037
G1 X20.096 Y182.731 E162.90548
G1 X19.764 Y182.11 E162.94061
G1 X19.504 Y181.456 E162.97572
G1 X19.32 Y180.776 E163.01087
G1 X19.214 Y180.08 E163.04599
G1 X19.188 Y179.607 E163.06962
G1 X16.567 Y29.392 E170.56502
G1 X16.595 Y28.689 E170.60012
G1 X16.702 Y27.993 E170.63525
G1 X16.887 Y27.314 E170.67036
G1 X17.149 Y26.66 E170.70551
G1 X17.482 Y26.04 E170.74062
G1 X17.884 Y25.462 E170.77575
G1 X18.349 Y24.933 E170.81089
G1 X18.87 Y24.461 E170.84596
G0 F3000 X19.263 Y24.662
G1 F1800 X19.828 Y24.283 E170.8799
G1 X20.435 Y23.973 E170.91391
G1 X21.073 Y23.737 E170.94785
G1 X21.735 Y23.576 E170.98184
G1 X22.665 Y23.485 E171.02846
G1 X192.783 Y20.515 E179.51697
G1 X193.463 Y20.543 E179.55092
G1 X194.135 Y20.651 E179.58488
G1 X194.79 Y20.836 E179.61884
G1 X195.419 Y21.097 E179.65281
G1 X196.013 Y21.43 E179.68679
G1 X196.564 Y21.831 E179.72079
G1 X197.064 Y22.293 E179.75475
G1 X197.506 Y22.811 E179.78872
G1 X197.885 Y23.376 E179.82266
G1 X198.195 Y23.983 E179.85667
G1 X198.431 Y24.621 E179.89061
G1 X198.592 Y25.283 E179.9246
G1 X198.673 Y25.959 E179.95856
G1 X198.684 Y26.319 E179.97653
G1 X198.547 Y179.504 E187.61897
G1 X198.506 Y180.184 E187.65295
G1 X198.386 Y180.854 E187.68691
G1 X198.189 Y181.506 E187.72089
G1 X197.916 Y182.13 E187.75487
G1 X197.572 Y182.717 E187.78882
G1 X197.162 Y183.261 E187.8228
G1 X196.691 Y183.752 E187.85675
G1 X196.165 Y184.185 E187.89074
G1 X195.592 Y184.553 E187.92471
G1 X194.98 Y184.852 E187.95869
G1 X194.338 Y185.077 E187.99263
G1 X193.673 Y185.225 E188.02662
G1 X192.747 Y185.299 E188.07297
G1 X25.387 Y185.299 E196.42259
G1 X24.707 Y185.259 E196.45657
G1 X24.037 Y185.14 E196.49052
G1 X23.385 Y184.943 E196.5245
G1 X22.761 Y184.671 E196.55847
G1 X22.173 Y184.327 E196.59245
G1 X21.629 Y183.917 E196.62644
G1 X21.138 Y183.446 E196.66038
G1 X20.704 Y182.921 E196.69437
G1 X20.335 Y182.349 E196.72833
G1 X20.036 Y181.737 E196.76231
G1 X19.811 Y181.095 E196.79625
G1 X19.662 Y180.43 E196.83025
G1 X19.588 Y179.6 E196.87182
G1 X16.967 Y29.385 E204.36722
G1 X16.995 Y28.705 E204.40117
G1 X17.103 Y28.033 E204.43513
G1 X17.288 Y27.377 E204.46913
G1 X17.549 Y26.749 E204.50306
G1 X17.883 Y26.155 E204.53706
G1 X18.283 Y25.604 E204.57103
G1 X18.745 Y25.104 E204.60499
G1 X19.263 Y24.662 E204.63897
G0 F3000 X19.14 Y25.282
G1 F1800 X19.653 Y24.871 E204.67176
G1 X20.212 Y24.526 E204.70453
G1 X20.809 Y24.251 E204.73732
G1 X21.434 Y24.051 E204.77006
G1 X22.08 Y23.928 E204.80287
G1 X22.672 Y23.885 E204.83248
G1 X192.79 Y20.915 E213.321
G1 X193.446 Y20.943 E213.35376
G1 X194.094 Y21.051 E213.38653
G1 X194.724 Y21.237 E213.4193
G1 X195.327 Y21.498 E213.45209
G1 X195.894 Y21.831 E213.48489
G1 X196.416 Y22.229 E213.51764
G1 X196.886 Y22.688 E213.55041
G1 X197.297 Y23.201 E213.58321
G1 X197.642 Y23.76 E213.61598
G1 X197.917 Y24.357 E213.64877
G1 X198.117 Y24.982 E213.68151
G1 X198.24 Y25.628 E213.71432
G1 X198.284 Y26.319 E213.74887
G1 X198.147 Y179.504 E221.3913
G1 X198.106 Y180.16 E221.42409
G1 X197.987 Y180.805 E221.45681
G1 X197.789 Y181.432 E221.48962
G1 X197.517 Y182.03 E221.52239
G1 X197.174 Y182.591 E221.5552
G1 X196.766 Y183.105 E221.58794
G1 X196.299 Y183.567 E221.62071
G1 X195.778 Y183.968 E221.65351
G1 X195.213 Y184.303 E221.68628
G1 X194.612 Y184.567 E221.71903
G1 X193.982 Y184.756 E221.75185
G1 X193.335 Y184.867 E221.7846
G1 X192.747 Y184.899 E221.81398
G1 X25.387 Y184.899 E230.1636
G1 X24.731 Y184.859 E230.19639
G1 X24.085 Y184.74 E230.22916
G1 X23.458 Y184.543 E230.26195
G1 X22.86 Y184.271 E230.29472
G1 X22.299 Y183.929 E230.3275
G1 X21.784 Y183.521 E230.36028
G1 X21.322 Y183.054 E230.39306
G1 X20.921 Y182.534 E230.42582
G1 X20.585 Y181.97 E230.45857
G1 X20.321 Y181.368 E230.49137
G1 X20.131 Y180.739 E230.52415
G1 X20.02 Y180.092 E230.5569
G1 X19.988 Y179.593 E230.58184
G1 X17.367 Y29.378 E238.07724
G1 X17.395 Y28.722 E238.11
G1 X17.503 Y28.074 E238.14277
G1 X17.689 Y27.444 E238.17555
G1 X17.95 Y26.841 E238.20833
G1 X18.283 Y26.274 E238.24113
G1 X18.681 Y25.752 E238.27388
G1 X19.14 Y25.282 E238.30666
G0 F3000 X19.535 Y25.468
G1 F1800 X20.042 Y25.091 E238.33818
G1 X20.593 Y24.781 E238.36972
G1 X21.178 Y24.543 E238.40123
G1 X21.789 Y24.38 E238.43278
G1 X22.679 Y24.285 E238.47743
G1 X192.797 Y21.315 E246.96595
G1 X193.428 Y21.344 E246.99746
G1 X194.051 Y21.452 E247.029
G1 X194.655 Y21.638 E247.06053
G1 X195.231 Y21.899 E247.09208
G1 X195.769 Y22.23 E247.1236
G1 X196.261 Y22.627 E247.15514
G1 X196.7 Y23.083 E247.18672
G1 X197.077 Y23.59 E247.21824
G1 X197.387 Y24.141 E247.24978
G1 X197.625 Y24.726 E247.28129
G1 X197.788 Y25.337 E247.31284
G1 X197.872 Y25.964 E247.3444
G1 X197.884 Y26.318 E247.36207
G1 X197.747 Y179.503 E255.0045
G1 X197.706 Y180.134 E255.03605
G1 X197.587 Y180.755 E255.0676
G1 X197.39 Y181.356 E255.09915
G1 X197.118 Y181.927 E255.1307
G1 X196.777 Y182.459 E255.16223
G1 X196.371 Y182.943 E255.19375
G1 X195.908 Y183.373 E255.22527
G1 X195.394 Y183.741 E255.25681
G1 X194.837 Y184.041 E255.28837
G1 X194.247 Y184.269 E255.31993
G1 X193.634 Y184.42 E255.35143
G1 X192.747 Y184.499 E255.39586
G1 X25.387 Y184.499 E263.74548
G1 X24.756 Y184.459 E263.77702
G1 X24.135 Y184.34 E263.80857
G1 X23.535 Y184.143 E263.84008
G1 X22.963 Y183.872 E263.87165
G1 X22.431 Y183.532 E263.90315
G1 X21.946 Y183.126 E263.93471
G1 X21.516 Y182.663 E263.96623
G1 X21.147 Y182.149 E263.9978
G1 X20.847 Y181.593 E264.02932
G1 X20.619 Y181.004 E264.06083
G1 X20.467 Y180.39 E264.09239
G1 X20.388 Y179.586 E264.13269
G1 X17.767 Y29.371 E271.62809
G1 X17.796 Y28.74 E271.6596
G1 X17.904 Y28.117 E271.69115
G1 X18.09 Y27.513 E271.72268
G1 X18.351 Y26.937 E271.75423
G1 X18.682 Y26.399 E271.78574
G1 X19.079 Y25.907 E271.81728
G1 X19.535 Y25.468 E271.84886
G0 F3000 X19.928 Y25.664
G1 F1800 X20.428 Y25.322 E271.87908
G1 X20.97 Y25.049 E271.90936
G1 X21.542 Y24.85 E271.93958
G1 X22.136 Y24.727 E271.96984
G1 X22.686 Y24.685 E271.99736
G1 X192.804 Y21.715 E280.48587
G1 X193.409 Y21.744 E280.51609
G1 X194.006 Y21.853 E280.54637
G1 X194.583 Y22.039 E280.57661
G1 X195.13 Y22.3 E280.60685
G1 X195.639 Y22.63 E280.63711
G1 X196.099 Y23.024 E280.66733
G1 X196.504 Y23.476 E280.69761
G1 X196.846 Y23.976 E280.72783
G1 X197.119 Y24.518 E280.75811
G1 X197.318 Y25.09 E280.78832
G1 X197.441 Y25.684 E280.81859
G1 X197.484 Y26.318 E280.85029
G1 X197.347 Y179.503 E288.49272
G1 X197.307 Y180.108 E288.52297
G1 X197.187 Y180.702 E288.55321
G1 X196.99 Y181.276 E288.58348
G1 X196.719 Y181.818 E288.61372
G1 X196.38 Y182.321 E288.64398
G1 X195.977 Y182.774 E288.67423
G1 X195.518 Y183.17 E288.70447
G1 X195.011 Y183.503 E288.73473
G1 X194.465 Y183.766 E288.76497
G1 X193.889 Y183.955 E288.79521
